X:843
T:Far from Home
S:Sessions etc
Z:Nigel Gatherer
M:4/4
L:1/8
K:G
GEDE  G3  A | B2 BA Bc d2 | GEDE G3 B | A2 AB AG E2 |
GEDE  G3  A | B2 BA Bc d2 | edef gedc | BGAF  G4   :|
g2 ge f2 fd | e2 ef ed B2 | gedB G3 B | A2 AB AG E2 |
GEDE  G3  A | B2 BA Bc d2 | edef gedc | BGAF  G4   :|
